!!!COA:	Josquin des Prez
!!!CDT:	~1450-1521/08/27
!!!OPR:	Missa Mon seul plaisir
!!!ONM:	5
!!!OTL:	Agnus Dei
!!!AGN:	Mass; Agnus Dei
!!!SCT:	NJE 9.2
!!!SCA:	New Josquin Edition 9.2
!!!voices:	4
!!!voices-OPR:	4
**kern	**kern
*staff2	*staff1
*Ivox	*Ivox
*I"Bassus	*I"Tenor
*I'B	*I'T
*clefF4	*clefGv2
*k[]	*k[]
*M2/1	*M2/1
*met(C|)	*met(C|)
=1-	=1-
!!section: Agnus Dei I
!!!OMD: Agnus Dei I
!!LO:TX:Z=8:t=[Only T and B are extant]
0G	0r
=2	=2
1D	0r
1D	.
=3	=3
1E	0G
1C	.
=4	=4
0D	1G
.	1F
=5	=5
1C	2.G/
.	4A/
2G\	2B\
[2F\	[2c\
=6	=6
2F\]	4c\]
.	4B\
2G\	4A/
.	4G/
1D	1A
=7	=7
2GG/	[0G
2C/	.
2BB/	.
[2C/	.
=8	=8
4C/]	0G]
4D\	.
4E\	.
4F\	.
2.G\	.
4F\	.
=9	=9
2.E\	0r
8D/L	.
8C/J	.
1D	.
=10	=10
2.C/	0r
4D\	.
2E\	.
2F\	.
=11	=11
2E\	[0c
1F	.
4E\	.
4D\	.
=12	=12
2C/	1c]
4BB/	.
4AA/	.
2GG/	2B\
2G\	2d\
=13	=13
2A\	2c\
2F\	2A/
1E	1B
=14	=14
1AA	0A
2r	.
2AA/	.
=15	=15
2.D\	1r
4E\	.
2F\	2A/
2G\	2B\
=16	=16
2C/	2c\
1G	2B\
.	4G/
.	4A/
4F\	4B\
4E\	4c\
=17	=17
2D\	2d\
2C/	1G
1D	.
.	2F/
=18	=18
1C	1G
2r	1c
2C/	.
=19	=19
1G	1B
2F\	1c
2A\	.
=20	=20
2.G\	2.d\
4A\	4c\
2G\	1d
2D\	.
=21	=21
2F\	4c\
.	4B\
2G\	4A/
.	4G/
1D	1A
=22	=22
2GG/	1G
1C	.
.	1r
2BB/	.
=23	=23
2.C/	1.c
4D\	.
4E\	.
4F\	.
2G\	2B\
=24	=24
2r	1A
2F\	.
2G\	1G
2E\	.
=25	=25
1F	1A
1E	1B
=26	=26
0r	2A/
.	1e
.	2d\
=27	=27
0r	2c\
.	2A/
.	1B
=28	=28
1r	1A
2r	1r
[2A\	.
=29	=29
4A\]	0r
4G\	.
4F\	.
4E\	.
2D\	.
2A\	.
=30	=30
2B\	0r
2A\	.
2G\	.
4F\	.
4E\	.
=31	=31
2D\	0r
2C/	.
2.E\	.
4F\	.
=32	=32
1G	0r
2r	.
4C/	.
4D\	.
=33	=33
4E\	0r
4F\	.
4G\	.
4E\	.
2.A\	.
4G\	.
=34	=34
2F\	0r
2E\	.
1D	.
=35	=35
1C	0r
2r	.
[2F\	.
=36	=36
2F\]	[0c
4E\	.
4D\	.
[1C	.
=37	=37
2C/]	1c]
4BB/	.
4AA/	.
2GG/	2d\
2C/	2e\
=38	=38
2BB/	2d\
2E\	2c\
2D\	[1d
[2F\	.
=39	=39
2F\]	2d\]
2E\	2G/
1D	1A
=40	=40
1GG	0G
2r	.
2G\	.
=41	=41
2.G\	0r
4F\	.
2E\	.
2D\	.
=42	=42
2C/	2r
2BB/	2d\
1AA	2.e\
.	4d\
=43	=43
2r	2c\
2E\	2B\
2.F\	1A
4E\	.
=44	=44
2D\	1r
2C/	.
1D	2.A/
.	4G/
=45	=45
2r	2F/
2AA/	2E/
2.D\	1D
4C/	.
=46	=46
2BB/	1r
2AA/	.
2GG/	1d
2BB/	.
=47	=47
1.AA	2.e\
.	4d\
.	2c\
2E\	2B\
=48	=48
2F\	2.A/
2C/	.
.	4G/
2D\	2F/
2GG/	2G/
=49	=49
1AA	1E
2.D\	1D
4GG/	.
=50	=50
2GG/	2r
2E\	2G/
2F\	2A/
2D\	2B\
=51	=51
2.C/	2.c\
4F\	4A/
2E\	2B\
2AA/	2A/
=52	=52
1E	2B\
.	2c\
2D\	1d
2F\	.
=53	=53
1E	1G
1D	[1A
=54	=54
2.AA/	1A]
4BB-/	.
2.C/	2r
.	2A/
8BB-i/L	.
8AA/J	.
=55	=55
2GG/	2B\
2C/	2c\
1BB	2d\
.	2D/
=56	=56
2AA/	2E/
2D\	2F/
2C/	2G/
2F\	2A/
=57	=57
2E\	2B\
2C/	2c\
1D	1A
=58	=58
1GG	2G/
.	2B\
2r	2B\
2GG/	2B\
=59	=59
1C	2c\
.	1A
2BB/	.
2BB/	[2G/
=60	=60
1AA	4G/]
.	4F/
.	4F/
.	4E/
2GG/	2G/
2F\	2A/
=61	=61
2G\	2B\
2C/	2c\
1D	1A
=62	=62
0GG;l	0Gl
==	==
*-	*-
!!!RDF**kern: l=long note in original notation
!!!RDF**kern: i=editorial accidental
!!!RDF**kern: V=start of tuplet marker
!!!RDF**kern: Z=end of tuplet marker
!!!ENC:	Reinier Valk; Victoria Chang 2012/03/28
!!!END:	2012/03/28/
!!!EED:	Jesse Rodin
!!!EEV:	2012/06/27/
!!attribution-level@Jos: 4 (questionable)
!!!ONB:	Translated from MusicXML and edited on 2012/06/27/ by Craig Sapp
!!muse2ps: T^@{OPR}^u^@{ONM}{. }@{OTL}^C^@{COA}?\n@{SCT}^i2I150v95,150Q8
